!! Stephen C. Foster, "Old Black Joe"
!! from 'Stephen Foster Song Book' Dover Publications (New York) pp. 93-95
!! NOTE:  Leading and trailing bars of rest have been omitted.
**kern
*M4/4
*MM38
*D:
=1
4d
8.f#
16g
4a
8r
16a
16a
=2
8b
8dd
8cc#
8b
2a
=3
4d
8.f#
16g
4a
8r
16a
16a
=4
8b
8a
8.g
16f#
2e
=5
4d
8.f#
16g
4a
8r
16a
16a
=6
8b
8dd
8cc#
8b
4a
8r
8dd
=7
8.cc#
16dd
8ee
8cc#
8dd
8b
8a
8b
=8
4f#'
4e'
4.d
!! Chorus
8a
=9
8f#
8a'
8r
8a
8f#
8a
8r
16a
16a
=10
8b
8dd
8cc#
8b
4a
8r
8dd
=11
8cc#
8dd
8ee
8cc#
8dd
8b
8a
8b
=12
4f#'
4e'
4.d
8r
!! Verse II
=13
4d
8.f#
16g
4a
8r
16a
16a
=14
8b
8dd
8cc#
8b
4.a
8r
=15
4d
8.f#
16g
4a
8r
16a
16a
=16
8b
8a
8.g
16f#
2e
=17
4d
8.f#
16g
4a
8r
16a
16a
=18
8b
8dd
8cc#
8b
4a
8r
8dd
=19
8.cc#
16dd
8ee
8cc#
8dd
8b
8a
8b
=20
4f#'
4e'
4.d
!! Chorus
8a
=21
8f#
8a'
8r
8a
8f#
8a
8r
16a
16a
=22
8b
8dd
8cc#
8b
4a
8r
8dd
=23
8cc#
8dd
8ee
8cc#
8dd
8b
8a
8b
=24
4f#'
4e'
4.d
==
*-
